assets/images/rankingImg.svg

<svg fill="none" height="11" viewBox="0 0 19 11" width="19" xmlns="http://www.w3.org/2000/svg"><path clip-rule="evenodd" d="m.5 10.25c0-.1989.079018-.38968.21967-.53033s.33142-.21967.53033-.21967h4.5c.19891 0 .38968.07902.53033.21967s.21967.33143.21967.53033-.07902.3897-.21967.5303c-.14065.1407-.33142.2197-.53033.2197h-4.5c-.19891 0-.389678-.079-.53033-.2197-.140652-.1406-.21967-.3314-.21967-.5303zm0-4.5c0-.19891.079018-.38968.21967-.53033s.33142-.21967.53033-.21967h10.5c.1989 0 .3897.07902.5303.21967.1407.14065.2197.33142.2197.53033s-.079.38968-.2197.53033c-.1406.14065-.3314.21967-.5303.21967h-10.5c-.19891 0-.389678-.07902-.53033-.21967s-.21967-.33142-.21967-.53033zm0-4.5c0-.19891.079018-.389678.21967-.53033s.33142-.21967.53033-.21967h16.5c.1989 0 .3897.079018.5303.21967.1407.140652.2197.33142.2197.53033s-.079.38968-.2197.53033c-.1406.14065-.3314.21967-.5303.21967h-16.5c-.19891 0-.389678-.07902-.53033-.21967s-.21967-.33142-.21967-.53033z" fill="#000" fill-rule="evenodd"/></svg>

<svg width="19" height="11" viewBox="0 0 19 11" fill="none" xmlns="http://www.w3.org/2000/svg"><path fill-rule="evenodd" clip-rule="evenodd" d="M0.5 10.25C0.5 10.0511 0.579018 9.86032 0.71967 9.71967C0.860322 9.57902 1.05109 9.5 1.25 9.5H5.75C5.94891 9.5 6.13968 9.57902 6.28033 9.71967C6.42098 9.86032 6.5 10.0511 6.5 10.25C6.5 10.4489 6.42098 10.6397 6.28033 10.7803C6.13968 10.921 5.94891 11 5.75 11H1.25C1.05109 11 0.860322 10.921 0.71967 10.7803C0.579018 10.6397 0.5 10.4489 0.5 10.25ZM0.5 5.75C0.5 5.55109 0.579018 5.36032 0.71967 5.21967C0.860322 5.07902 1.05109 5 1.25 5H11.75C11.9489 5 12.1397 5.07902 12.2803 5.21967C12.421 5.36032 12.5 5.55109 12.5 5.75C12.5 5.94891 12.421 6.13968 12.2803 6.28033C12.1397 6.42098 11.9489 6.5 11.75 6.5H1.25C1.05109 6.5 0.860322 6.42098 0.71967 6.28033C0.579018 6.13968 0.5 5.94891 0.5 5.75ZM0.5 1.25C0.5 1.05109 0.579018 0.860322 0.71967 0.71967C0.860322 0.579018 1.05109 0.5 1.25 0.5H17.75C17.9489 0.5 18.1397 0.579018 18.2803 0.71967C18.421 0.860322 18.5 1.05109 18.5 1.25C18.5 1.44891 18.421 1.63968 18.2803 1.78033C18.1397 1.92098 17.9489 2 17.75 2H1.25C1.05109 2 0.860322 1.92098 0.71967 1.78033C0.579018 1.63968 0.5 1.44891 0.5 1.25Z" fill="#000"/></svg>
